X:12
T:Dougie MacDonald's
D:Solas 1
M:4/4
L:1/8
R:reel
K:Emin
cc|: BEGB cccc |BEGB ADFA |BEGB ccec |Be^df (3eee e=d |
BEGB cccc |BEGB ADFA |BEGB ccec |Be^df e2EF :|
|:GEB,G AFDc |BGEG cGEG |cGEc BGEG |AFDF GEFD |
GEB,G AFDc |BGEG cGEG |ccdc BAGB |AFDF EB,EF:|
